Obsidian-SemiLight/actions/16s/flash.svg

<svg viewBox="0 0 16 16" xmlns="http://www.w3.org/2000/svg"><path d="m3 2v1 2h-1v9h12v-9h-1v-2-1zm1 1h8v2h-8zm-1 3h10v7h-10zm4 1v5l3-2.5z" fill="#4d4d4d"/></svg>

<svg xmlns="http://www.w3.org/2000/svg" viewBox="0 0 16 16">
  <defs id="defs3051">
    <style type="text/css" id="current-color-scheme">
      .ColorScheme-Text {
        color:#4d4d4d;
      }
      </style>
  </defs>
 <path style="fill:currentColor;fill-opacity:1;stroke:none" 
       d="M 3 2 L 3 3 L 3 5 L 2 5 L 2 14 L 14 14 L 14 5 L 13 5 L 13 3 L 13 2 L 3 2 z M 4 3 L 12 3 L 12 5 L 4 5 L 4 3 z M 3 6 L 13 6 L 13 13 L 3 13 L 3 6 z M 7 7 L 7 12 L 10 9.5 L 7 7 z "
     class="ColorScheme-Text"
     />
</svg>
